!!!COM: Anon.
!!!OTL: Acorda, o/ mama~e
!!!OTL: Romanceiro Folclorico do Brasil
!!!CNT: Brasil
!!!OCY: Brasil
!!!ODT: <1971///
!!!PSR: Irmaos Vitale
!!!PSP: Sao Paulo, Brasil
!!!PDT: 1953///
!!!PPE: Rossini Tavares de Lima
!!!PPG: pages 57-58
!! Romance: Cego Ou Ceguinho
!! Place: Capital, Sao Paulo, Brasil
**kern
*clefG2
*k[b-e-a-]
*M3/4
*MM??
=1-
8r
8c
8c
8d
8e-
8f
=
4g
4.cc
8bn
=
4dd
4.bn
8g
=
4a-
4g
4r
=
8r
8c
8c
8d
8e-
8f
=
4g
4.cc
8bn
=
4dd
4.bn
8g
=
4a-
4g
4r
=
8r
8g
8g
8g
8b-
8a-
=
4g
4.f
8d
=
4g
4.e-
8d
=
4d
2c
==
*-
